images/debian.svg

<svg width="80" height="80" viewBox="0 0 80 80" fill="none" xmlns="http://www.w3.org/2000/svg">
<g id="iconfinder_debian_4691286">
<mask id="mask0" mask-type="alpha" maskUnits="userSpaceOnUse" x="7" y="0" width="66" height="80">
<path id="Vector" d="M46.2666 42.2667C44.9333 42.2667 46.5333 42.9333 48.2666 43.2C48.7333 42.8667 49.1666 42.4667 49.5666 42.1C48.4835 42.3382 47.3683 42.3945 46.2666 42.2667ZM53.4 40.5C54.1666 39.4 54.7333 38.2 54.9666 36.9667C54.7666 37.8667 54.3 38.6333 53.8666 39.4C51.3666 40.9667 53.6333 38.5 53.8666 37.5333C51.2 40.9 53.5 39.5333 53.4 40.5ZM56 33.6667C56.1666 31.2667 55.5333 32 55.3333 32.9333C55.5666 33.0667 55.7666 34.6 56 33.6667ZM41.2666 1.03333C41.9333 1.16667 42.7666 1.26667 42.6666 1.43333C43.4333 1.26667 43.6 1.1 41.2333 1.03333H41.2666ZM42.6666 1.43333L42.1666 1.53333L42.6333 1.5V1.43333H42.6666ZM64.7333 34.5667C64.8 36.7 64.0666 37.7333 63.4666 39.5667L62.3 40.1667C61.3666 41.9667 62.4 41.3333 61.7333 42.7667C60.2666 44.0667 57.2666 46.8333 56.3333 47.1C55.6666 47.1 56.8 46.2667 56.9666 45.9667C55 47.3 55.3666 47.9667 52.4 48.8L52.3 48.6C44.9 52.0667 34.6333 45.2 34.8 35.8C34.7 36.3667 34.5666 36.2333 34.4 36.4667C34.1971 34.0754 34.7261 31.679 35.9167 29.5953C37.1074 27.5116 38.9035 25.8392 41.0666 24.8C43.0623 23.7964 45.3126 23.4124 47.5281 23.6976C49.7437 23.9827 51.8234 24.9238 53.5 26.4C52.4342 25.0175 51.0583 23.9049 49.4834 23.1522C47.9084 22.3995 46.1785 22.0276 44.4333 22.0667C40.5 22.1 36.8333 24.6 35.6 27.3C33.6 28.5667 33.3666 32.2 32.5 32.8333C31.3 41.5 34.7 45.2333 40.4333 49.6333C41.3333 50.2667 40.7 50.3333 40.8333 50.8C38.8853 49.8758 37.1491 48.5594 35.7333 46.9333C36.5 48.0333 37.3 49.1333 38.4 49.9667C36.5666 49.3667 34.1666 45.6333 33.4666 45.4667C36.5666 51 46.0666 55.2 51 53.1333C48.3753 53.3195 45.7392 53.0027 43.2333 52.2C42.1333 51.6667 40.6666 50.5 40.9 50.3C44.1247 51.6563 47.657 52.1122 51.1204 51.6191C54.5838 51.126 57.8486 49.7024 60.5666 47.5C62.0333 46.3333 63.6666 44.3667 64.1333 44.3333C63.4666 45.4 64.2666 44.8667 63.7333 45.8C65.2 43.4 63.0666 44.8 65.2666 41.6667L66.0666 42.7667C65.7666 40.7667 68.5333 38.3667 68.2666 35.2333C68.9 34.2333 68.9333 36.2333 68.2666 38.4667C69.2333 36 68.5333 35.6333 68.7666 33.6C69.0333 34.2667 69.3666 35 69.5333 35.7C68.9333 33.3667 70.2 31.7 70.4666 30.3667C70.1666 30.2 69.5333 31.3667 69.4 28.6C69.4 27.3667 69.7333 27.9333 69.8666 27.6667C69.6 27.5 69 26.6 68.6 24.8C68.8666 24.3667 69.3333 25.9 69.7333 25.9333C69.4666 24.5333 69.0666 23.4333 69.0666 22.3333C67.9333 20.0667 68.6666 22.6667 67.7333 21.3333C66.6 17.7 68.7333 20.5 68.8666 18.8667C70.6666 21.4333 71.6666 25.4 72.1333 27.0667C71.8 25.0667 71.2 23.0667 70.5 21.2C71.0333 21.4333 69.6333 17.0667 71.2 19.9667C69.1254 13.7242 64.7674 8.49699 59 5.33333C59.6 5.9 60.4 6.63333 60.1 6.73333C57.6 5.23333 58.0333 5.13333 57.6666 4.5C55.6333 3.66667 55.5 4.56667 54.1333 4.5C50.2666 2.43333 49.5333 2.66667 46 1.33333L46.1666 2.1C43.6 1.26667 43.1666 2.43333 40.4 2.1C40.2333 1.96667 41.3 1.63333 42.1666 1.5C39.7 1.83333 39.8333 1.03333 37.4 1.6C37.9666 1.16667 38.6 0.9 39.2333 0.533333C37.2333 0.666667 34.4333 1.7 35.3 0.766667C32 2.26667 26.1666 4.33333 22.9 7.4L22.8 6.66667C21.3 8.46667 16.2666 12.0333 15.8666 14.3667L15.4333 14.4667C14.6666 15.8 14.1666 17.3 13.5333 18.6667C12.5333 20.4 12.0333 19.3333 12.2 19.6C10.2 23.6667 9.19998 27.1 8.33331 29.9333C8.93331 30.8333 8.33331 35.4333 8.56664 39.1333C7.56664 57.3333 21.3666 75.0333 36.4333 79.1333C38.6666 79.9 41.9333 79.9 44.7333 79.9667C41.4333 79.0333 41 79.4667 37.8 78.3333C35.4666 77.2667 34.9666 76 33.3333 74.5667L34 75.7333C30.7666 74.6 32.1 74.3333 29.4666 73.5L30.1666 72.6C29.1333 72.5 27.4 70.8333 26.9333 69.9L25.8 69.9333C24.4333 68.2667 23.7 67.0333 23.7666 66.0667L23.4 66.7333C22.9666 66.0333 18.3333 60.4 20.7333 61.7C20.3 61.3 19.7 61.0333 19.0666 59.8667L19.5333 59.3C18.3666 57.8333 17.4 55.9 17.4666 55.3C18.1333 56.1 18.5333 56.3 18.9666 56.4C16.0333 49.1667 15.8666 56 13.6333 49.0667L14.1333 49C13.8 48.4667 13.5333 47.8667 13.2666 47.3L13.4666 45.3C11.3666 42.8333 12.8666 34.9667 13.1666 30.6333C13.4 28.8333 14.9333 26.9667 16.1 24.0333L15.4 23.9C16.7333 21.5333 23.2 14.3333 26.2 14.7C27.6333 12.8667 25.9 14.7 25.6 14.2333C28.8 10.9333 29.8 11.9 31.9333 11.3C34.2666 9.96667 29.9333 11.8333 31.0333 10.8C35.0333 9.8 33.8666 8.46667 39.1 7.96667C39.6333 8.3 37.8 8.43333 37.3666 8.83333C40.7 7.2 47.8666 7.6 52.5666 9.73333C58 12.3 64.1 19.7667 64.3333 26.8333L64.6 26.9C64.4666 29.7333 65.0333 32.9667 64.0333 35.9333L64.7 34.5333L64.7333 34.5667ZM31.8 44.1L31.6333 45.0333C32.5 46.2 33.2 47.4667 34.3 48.4C33.5 46.8333 32.9 46.2 31.8 44.0667V44.1ZM33.8666 44C33.4 43.5 33.1333 42.8667 32.8333 42.2667C33.1 43.3333 33.7 44.2667 34.2666 45.2L33.8666 44ZM70.3333 36.0667L70.1 36.5667C69.7666 39.1 68.9666 41.6 67.8 43.9333C69.1333 41.5 69.9666 38.8 70.3 36.0667H70.3333ZM41.5 0.4C42.4 0.0666667 43.7 0.233333 44.6666 0C43.4333 0.1 42.2 0.166667 41 0.333333L41.5 0.4ZM10.0333 17.1333C10.2666 19.0333 8.59997 19.8 10.4 18.5333C11.4 16.3333 10.0333 17.9333 10.0666 17.1333H10.0333ZM7.93331 26C8.33331 24.7 8.43331 23.9333 8.59997 23.2C7.43331 24.6667 8.03331 24.9667 7.93331 25.9667" fill="black"/>
</mask>
<g mask="url(#mask0)">
<rect id="Rectangle 16" width="80" height="80" fill="#F35045"/>
</g>
</g>
</svg>

<svg width="80" height="80" viewBox="0 0 80 80" fill="none" xmlns="http://www.w3.org/2000/svg"><g id="iconfinder_debian_4691286"><mask id="mask0" maskUnits="userSpaceOnUse" x="7" y="0" width="66" height="80"><path id="Vector" d="M46.267 42.267c-1.334 0 .266.666 2 .933.466-.333.9-.733 1.3-1.1a10 10 0 01-3.3.167zM53.4 40.5c.767-1.1 1.333-2.3 1.567-3.533-.2.9-.667 1.666-1.1 2.433-2.5 1.567-.234-.9 0-1.867-2.667 3.367-.367 2-.467 2.967zm2.6-6.833c.167-2.4-.467-1.667-.667-.734.234.134.434 1.667.667.734zM41.267 1.033c.666.134 1.5.234 1.4.4.766-.166.933-.333-1.434-.4h.034zm1.4.4l-.5.1.466-.033v-.067h.034zm22.066 33.134c.067 2.133-.666 3.166-1.266 5l-1.167.6c-.933 1.8.1 1.166-.567 2.6-1.466 1.3-4.466 4.066-5.4 4.333-.666 0 .467-.833.634-1.133-1.967 1.333-1.6 2-4.567 2.833l-.1-.2c-7.4 3.467-17.667-3.4-17.5-12.8-.1.567-.233.433-.4.667A11.834 11.834 0 0141.067 24.8 11.2 11.2 0 0153.5 26.4a11.134 11.134 0 00-9.067-4.333C40.5 22.1 36.833 24.6 35.6 27.3c-2 1.267-2.233 4.9-3.1 5.533-1.2 8.667 2.2 12.4 7.933 16.8.9.634.267.7.4 1.167a15.666 15.666 0 01-5.1-3.867c.767 1.1 1.567 2.2 2.667 3.034-1.833-.6-4.233-4.334-4.933-4.5C36.567 51 46.067 55.2 51 53.133c-2.625.186-5.26-.13-7.767-.933-1.1-.533-2.566-1.7-2.333-1.9a19.333 19.333 0 0019.667-2.8c1.466-1.167 3.1-3.133 3.566-3.167-.666 1.067.134.534-.4 1.467 1.467-2.4-.666-1 1.534-4.133l.8 1.1c-.3-2 2.466-4.4 2.2-7.534.633-1 .666 1 0 3.234.966-2.467.266-2.834.5-4.867.266.667.6 1.4.766 2.1-.6-2.333.667-4 .934-5.333-.3-.167-.934 1-1.067-1.767 0-1.233.333-.667.467-.933C69.6 27.5 69 26.6 68.6 24.8c.267-.433.733 1.1 1.133 1.133-.266-1.4-.666-2.5-.666-3.6-1.134-2.266-.4.334-1.334-1-1.133-3.633 1-.833 1.134-2.466 1.8 2.566 2.8 6.533 3.266 8.2-.333-2-.933-4-1.633-5.867.533.233-.867-4.133.7-1.233A26.067 26.067 0 0059 5.333c.6.567 1.4 1.3 1.1 1.4-2.5-1.5-2.067-1.6-2.433-2.233-2.034-.833-2.167.067-3.534 0-3.866-2.067-4.6-1.833-8.133-3.167l.167.767c-2.567-.833-3 .333-5.767 0-.167-.133.9-.467 1.767-.6-2.467.333-2.334-.467-4.767.1.567-.433 1.2-.7 1.833-1.067-2 .134-4.8 1.167-3.933.234-3.3 1.5-9.133 3.566-12.4 6.633l-.1-.733c-1.5 1.8-6.533 5.366-6.933 7.7l-.434.1c-.766 1.333-1.266 2.833-1.9 4.2-1 1.733-1.5.666-1.333.933-2 4.067-3 7.5-3.867 10.333.6.9 0 5.5.234 9.2-1 18.2 12.8 35.9 27.866 40 2.234.767 5.5.767 8.3.834-3.3-.934-3.733-.5-6.933-1.634-2.333-1.066-2.833-2.333-4.467-3.766L34 75.733c-3.233-1.133-1.9-1.4-4.533-2.233l.7-.9c-1.034-.1-2.767-1.767-3.234-2.7l-1.133.033c-1.367-1.666-2.1-2.9-2.033-3.866l-.367.666c-.433-.7-5.067-6.333-2.667-5.033-.433-.4-1.033-.667-1.666-1.833l.466-.567c-1.166-1.467-2.133-3.4-2.066-4 .666.8 1.066 1 1.5 1.1-2.934-7.233-3.1-.4-5.334-7.333l.5-.067c-.333-.533-.6-1.133-.866-1.7l.2-2c-2.1-2.467-.6-10.333-.3-14.667.233-1.8 1.766-3.666 2.933-6.6l-.7-.133c1.333-2.367 7.8-9.567 10.8-9.2 1.433-1.833-.3 0-.6-.467 3.2-3.3 4.2-2.333 6.333-2.933 2.334-1.333-2 .533-.9-.5 4-1 2.834-2.333 8.067-2.833.533.333-1.3.466-1.733.866 3.333-1.633 10.5-1.233 15.2.9C58 12.3 64.1 19.767 64.333 26.833l.267.067c-.133 2.833.433 6.067-.567 9.033l.667-1.4.033.034zM31.8 44.1l-.167.933C32.5 46.2 33.2 47.467 34.3 48.4c-.8-1.567-1.4-2.2-2.5-4.333v.033zm2.067-.1c-.467-.5-.734-1.133-1.034-1.733.267 1.066.867 2 1.434 2.933l-.4-1.2zm36.466-7.933l-.233.5c-.333 2.533-1.133 5.033-2.3 7.366 1.333-2.433 2.167-5.133 2.5-7.866h.033zM41.5.4c.9-.333 2.2-.167 3.167-.4C43.433.1 42.2.167 41 .333l.5.067zM10.033 17.133c.234 1.9-1.433 2.667.367 1.4 1-2.2-.367-.6-.333-1.4h-.034zM7.933 26c.4-1.3.5-2.067.667-2.8-1.167 1.467-.567 1.767-.667 2.767" fill="#000"/></mask><g mask="url(#mask0)"><path id="Rectangle 16" fill="#F35045" d="M0 0h80v80H0z"/></g></g></svg>
